src/assets/surveypagesicon.svg

<svg width="56" height="56" viewBox="0 0 56 56" fill="none" xmlns="http://www.w3.org/2000/svg">
<path d="M42 52.5H14C12.8397 52.5 11.7269 52.0391 10.9064 51.2186C10.0859 50.3981 9.625 49.2853 9.625 48.125V11.375C9.625 10.2147 10.0859 9.10188 10.9064 8.28141C11.7269 7.46094 12.8397 7 14 7H18.375V8.75H14C13.3038 8.75 12.6361 9.02656 12.1438 9.51884C11.6516 10.0111 11.375 10.6788 11.375 11.375V48.125C11.375 48.8212 11.6516 49.4889 12.1438 49.9812C12.6361 50.4734 13.3038 50.75 14 50.75H42C42.6962 50.75 43.3639 50.4734 43.8562 49.9812C44.3484 49.4889 44.625 48.8212 44.625 48.125V11.375C44.625 10.6788 44.3484 10.0111 43.8562 9.51884C43.3639 9.02656 42.6962 8.75 42 8.75H37.625V7H42C43.1603 7 44.2731 7.46094 45.0936 8.28141C45.9141 9.10188 46.375 10.2147 46.375 11.375V48.125C46.375 49.2853 45.9141 50.3981 45.0936 51.2186C44.2731 52.0391 43.1603 52.5 42 52.5ZM42.875 48.125V11.375C42.875 11.1429 42.7828 10.9204 42.6187 10.7563C42.4546 10.5922 42.2321 10.5 42 10.5H37.625V12.25H41.125V47.25H14.875V12.25H18.375V10.5H14C13.7679 10.5 13.5454 10.5922 13.3813 10.7563C13.2172 10.9204 13.125 11.1429 13.125 11.375V48.125C13.125 48.3571 13.2172 48.5796 13.3813 48.7437C13.5454 48.9078 13.7679 49 14 49H42C42.2321 49 42.4546 48.9078 42.6187 48.7437C42.7828 48.5796 42.875 48.3571 42.875 48.125ZM35.875 14.875V7.875C35.875 7.64294 35.7828 7.42038 35.6187 7.25628C35.4546 7.09219 35.2321 7 35 7H31.5C31.5 6.07174 31.1312 5.1815 30.4749 4.52513C29.8185 3.86875 28.9283 3.5 28 3.5C27.0717 3.5 26.1815 3.86875 25.5251 4.52513C24.8688 5.1815 24.5 6.07174 24.5 7H21C20.7679 7 20.5454 7.09219 20.3813 7.25628C20.2172 7.42038 20.125 7.64294 20.125 7.875V14.875C20.125 15.1071 20.2172 15.3296 20.3813 15.4937C20.5454 15.6578 20.7679 15.75 21 15.75H35C35.2321 15.75 35.4546 15.6578 35.6187 15.4937C35.7828 15.3296 35.875 15.1071 35.875 14.875ZM21.875 8.75H25.375C25.6071 8.75 25.8296 8.65781 25.9937 8.49372C26.1578 8.32962 26.25 8.10706 26.25 7.875V7C26.25 6.53587 26.4344 6.09075 26.7626 5.76256C27.0908 5.43437 27.5359 5.25 28 5.25C28.4641 5.25 28.9092 5.43437 29.2374 5.76256C29.5656 6.09075 29.75 6.53587 29.75 7V7.875C29.75 8.10706 29.8422 8.32962 30.0063 8.49372C30.1704 8.65781 30.3929 8.75 30.625 8.75H34.125V14H21.875V8.75ZM30.625 10.5H25.375V12.25H30.625V10.5Z" fill="#B30000"/>
<path d="M37.6258 20.125H28.8758V21.875H37.6258V20.125ZM37.6258 25.375H28.8758V27.125H37.6258V25.375ZM37.6258 30.625H28.8758V32.375H37.6258V30.625ZM37.6258 35.875H28.8758V37.625H37.6258V35.875ZM25.3758 42V36.75C25.3758 36.5179 25.2836 36.2954 25.1195 36.1313C24.9554 35.9672 24.7328 35.875 24.5008 35.875H19.2508C19.0187 35.875 18.7962 35.9672 18.6321 36.1313C18.468 36.2954 18.3758 36.5179 18.3758 36.75V42C18.3758 42.2321 18.468 42.4546 18.6321 42.6187C18.7962 42.7828 19.0187 42.875 19.2508 42.875H24.5008C24.7328 42.875 24.9554 42.7828 25.1195 42.6187C25.2836 42.4546 25.3758 42.2321 25.3758 42ZM20.1258 37.625H23.6258V41.125H20.1258V37.625ZM37.6258 35.875H28.8758V37.625H37.6258V35.875ZM25.3758 42V36.75C25.3758 36.5179 25.2836 36.2954 25.1195 36.1313C24.9554 35.9672 24.7328 35.875 24.5008 35.875H19.2508C19.0187 35.875 18.7962 35.9672 18.6321 36.1313C18.468 36.2954 18.3758 36.5179 18.3758 36.75V42C18.3758 42.2321 18.468 42.4546 18.6321 42.6187C18.7962 42.7828 19.0187 42.875 19.2508 42.875H24.5008C24.7328 42.875 24.9554 42.7828 25.1195 42.6187C25.2836 42.4546 25.3758 42.2321 25.3758 42ZM20.1258 37.625H23.6258V41.125H20.1258V37.625ZM37.6258 41.125H28.8758V42.875H37.6258V41.125ZM21.622 25.1213L25.122 21.6213L23.8795 20.3787L20.887 23.3713L18.857 22.0238L17.8945 23.4762L20.5195 25.2262C20.6619 25.3219 20.8293 25.3737 21.0008 25.375C21.1159 25.3757 21.2301 25.3536 21.3367 25.3101C21.4433 25.2665 21.5403 25.2023 21.622 25.1213ZM21.622 32.1213L25.122 28.6213L23.8795 27.3787L20.887 30.3713L18.857 29.0237L17.8945 30.4763L20.5195 32.2263C20.6619 32.3219 20.8293 32.3737 21.0008 32.375C21.1159 32.3757 21.2301 32.3536 21.3367 32.31C21.4433 32.2665 21.5403 32.2023 21.622 32.1213Z" fill="#F9AFB2"/>
</svg>

<svg width="56" height="56" viewBox="0 0 56 56" fill="none" xmlns="http://www.w3.org/2000/svg">
    <path d="M42 52.5H14a4.375 4.375 0 0 1-4.375-4.375v-36.75A4.375 4.375 0 0 1 14 7h4.375v1.75H14a2.625 2.625 0 0 0-2.625 2.625v36.75A2.625 2.625 0 0 0 14 50.75h28a2.625 2.625 0 0 0 2.625-2.625v-36.75A2.625 2.625 0 0 0 42 8.75h-4.375V7H42a4.375 4.375 0 0 1 4.375 4.375v36.75A4.375 4.375 0 0 1 42 52.5zm.875-4.375v-36.75A.875.875 0 0 0 42 10.5h-4.375v1.75h3.5v35h-26.25v-35h3.5V10.5H14a.875.875 0 0 0-.875.875v36.75A.875.875 0 0 0 14 49h28a.875.875 0 0 0 .875-.875zm-7-33.25v-7A.875.875 0 0 0 35 7h-3.5a3.5 3.5 0 1 0-7 0H21a.875.875 0 0 0-.875.875v7a.875.875 0 0 0 .875.875h14a.875.875 0 0 0 .875-.875zm-14-6.125h3.5a.875.875 0 0 0 .875-.875V7a1.75 1.75 0 0 1 3.5 0v.875a.875.875 0 0 0 .875.875h3.5V14h-12.25V8.75zm8.75 1.75h-5.25v1.75h5.25V10.5z" fill="#004498"/>
    <path d="M37.625 20.125h-8.75v1.75h8.75v-1.75zm0 5.25h-8.75v1.75h8.75v-1.75zm0 5.25h-8.75v1.75h8.75v-1.75zm0 5.25h-8.75v1.75h8.75v-1.75zM25.375 42v-5.25a.875.875 0 0 0-.875-.875h-5.25a.875.875 0 0 0-.875.875V42a.875.875 0 0 0 .875.875h5.25a.875.875 0 0 0 .875-.875zm-5.25-4.375h3.5v3.5h-3.5v-3.5zm17.5-1.75h-8.75v1.75h8.75v-1.75zM25.375 42v-5.25a.875.875 0 0 0-.875-.875h-5.25a.875.875 0 0 0-.875.875V42a.875.875 0 0 0 .875.875h5.25a.875.875 0 0 0 .875-.875zm-5.25-4.375h3.5v3.5h-3.5v-3.5zm17.5 3.5h-8.75v1.75h8.75v-1.75zM21.62 25.121l3.5-3.5-1.242-1.242-2.993 2.992-2.03-1.347-.962 1.452 2.625 1.75a.874.874 0 0 0 1.102-.105zm0 7 3.5-3.5-1.242-1.242-2.993 2.992-2.03-1.347-.962 1.452 2.625 1.75a.875.875 0 0 0 1.102-.105z" fill="#F9AFB2"/>
</svg>
